X:1
T:Wha' Saw the Forty-Second?
M:4/4
L:1/4
K:C
 C2 C3/2 D/2| E D E G| C2 C3/2 D/2| E D D2| C3/2- D/2 C D| E D E G|\
 A c G E| E D D2| c3/2 c/2 c c| c G E G| c3/2 c/2 c3/2 d/2| e d d2|\
 c3/2 c/2 c d| e d e g| a c' g e| e d d2|
